Papirus/64x64/apps/io.github.lainsce.Countdown.svg

<?xml version="1.0" encoding="UTF-8" standalone="no"?>
<svg
   id="_图层_1"
   version="1.1"
   viewBox="0 0 64 64" width="64" height="64"
   sodipodi:docname="io.github.lainsce.Countdown.svg"
   xml:space="preserve"
   inkscape:version="1.4 (e7c3feb100, 2024-10-09)"
   xmlns:inkscape="http://www.inkscape.org/namespaces/inkscape"
   xmlns:sodipodi="http://sodipodi.sourceforge.net/DTD/sodipodi-0.dtd"
   xmlns:xlink="http://www.w3.org/1999/xlink"
   xmlns="http://www.w3.org/2000/svg"
   xmlns:svg="http://www.w3.org/2000/svg"><sodipodi:namedview
     id="namedview26"
     pagecolor="#505050"
     bordercolor="#eeeeee"
     borderopacity="1"
     inkscape:showpageshadow="0"
     inkscape:pageopacity="0"
     inkscape:pagecheckerboard="0"
     inkscape:deskcolor="#505050"
     inkscape:zoom="7.5572037"
     inkscape:cx="32.220913"
     inkscape:cy="42.740677"
     inkscape:window-width="1920"
     inkscape:window-height="939"
     inkscape:window-x="0"
     inkscape:window-y="34"
     inkscape:window-maximized="1"
     inkscape:current-layer="_图层_1" /><!-- Generator: Adobe Illustrator 29.0.1, SVG Export Plug-In . SVG Version: 2.1.0 Build 192)  --><defs
     id="defs6"><style
       id="style1">
      .st0 {
        fill-opacity: .5;
      }

      .st0, .st1, .st2, .st3, .st4, .st5, .st6, .st7 {
        fill: #fff;
      }

      .st8 {
        fill: #133c9a;
      }

      .st2, .st9 {
        display: none;
      }

      .st3 {
        fill-opacity: .2;
      }

      .st4 {
        fill-opacity: .9;
      }

      .st10 {
        fill: #3370ff;
      }

      .st11 {
        fill: url(#_未命名的渐变_3);
      }

      .st12 {
        fill: url(#_未命名的渐变);
      }

      .st5 {
        fill-opacity: .3;
      }

      .st6 {
        fill-opacity: 0;
      }

      .st7 {
        fill-opacity: .7;
      }

      .st13 {
        fill: #00d6b9;
      }

      .st14 {
        fill: url(#_未命名的渐变_2);
      }
    </style><radialGradient
       id="_未命名的渐变"
       data-name="未命名的渐变"
       cx="123.9"
       cy="-40.2"
       fx="123.9"
       fy="-40.2"
       r="59.4"
       gradientTransform="translate(-26.8 25.5) scale(.6 -.7)"
       gradientUnits="userSpaceOnUse"><stop
         offset="0"
         stop-color="#db202e"
         id="stop1" /><stop
         offset="1"
         stop-color="#e01b24"
         id="stop2" /></radialGradient><radialGradient
       id="_未命名的渐变_2"
       data-name="未命名的渐变 2"
       cx="67.6"
       cy="26.8"
       fx="67.6"
       fy="26.8"
       r="105.2"
       gradientTransform="translate(-26.6 25.3) scale(.6 -.7)"
       gradientUnits="userSpaceOnUse"><stop
         offset="0"
         stop-color="#ffb648"
         id="stop3" /><stop
         offset="1"
         stop-color="#ff7800"
         stop-opacity="0"
         id="stop4" /></radialGradient><radialGradient
       id="_未命名的渐变_3"
       data-name="未命名的渐变 3"
       cx="61.7"
       cy="18.6"
       fx="61.7"
       fy="18.6"
       r="68"
       gradientTransform="translate(-26.8 25.8) scale(.6 -.7)"
       gradientUnits="userSpaceOnUse"><stop
         offset="0"
         stop-color="#c64600"
         id="stop5" /><stop
         offset="1"
         stop-color="#a51d2d"
         id="stop6" /></radialGradient><linearGradient
       id="a"><stop
         offset="0"
         stop-color="#fff"
         id="stop1-3" /><stop
         offset="1"
         stop-color="#fff"
         stop-opacity="0"
         id="stop2-6" /></linearGradient><linearGradient
       gradientTransform="rotate(-90,110.91,115.434)"
       gradientUnits="userSpaceOnUse"
       xlink:href="#a"
       id="b"
       y2="24.145"
       x2="108.974"
       y1="16.246"
       x1="108.118" /><linearGradient
       gradientTransform="rotate(90,135.136,85.779)"
       gradientUnits="userSpaceOnUse"
       xlink:href="#a"
       id="c"
       y2="24.145"
       x2="108.974"
       y1="16.246"
       x1="108.118" /><linearGradient
       gradientUnits="userSpaceOnUse"
       xlink:href="#a"
       id="d"
       y2="24.145"
       x2="108.974"
       y1="16.246"
       x1="108.118" /><linearGradient
       gradientTransform="rotate(180,108.012,88.805)"
       gradientUnits="userSpaceOnUse"
       xlink:href="#a"
       id="e"
       y2="24.145"
       x2="108.974"
       y1="16.246"
       x1="108.118" /></defs><path
     class="st1"
     d="M47.5,64.1H13.8c-7.6,0-13.8-6.3-13.8-13.8V13.7C0,6.2,6.2,0,13.7,0h36.6c7.5,0,13.7,6.2,13.7,13.7v36.6c0,7.5-6.2,13.7-13.7,13.7h-2.9.1Z"
     id="path6"
     style="fill:#ffb55b;fill-opacity:1" /><g
     id="g39"
     transform="matrix(1.1207167,0,0,1.088216,-4.2909697,-1.8795433)"><path
       style="fill:#ff761c;stroke-width:1.19709"
       d="M 31,1.6370105 V 60.39021 h 3 V 1.6370105 Z"
       id="path3-1" /><path
       style="fill:#38353e"
       d="M 9.8260871,15 H 27.173914 C 28.183254,15 29,15.819987 29,16.833333 V 46.166667 C 29,47.180013 28.183254,48 27.173914,48 H 9.8260871 C 8.8167456,48 8,47.180013 8,46.166667 V 16.833333 C 8,15.819987 8.8167456,15 9.8260871,15 Z m 0,0"
       id="path4" /><path
       style="fill:#38353e"
       d="M 37.826087,15 H 55.173912 C 56.183256,15 57,15.819987 57,16.833333 V 46.166667 C 57,47.180013 56.183256,48 55.173912,48 H 37.826087 C 36.816745,48 36,47.180013 36,46.166667 V 16.833333 C 36,15.819987 36.816745,15 37.826087,15 Z m 0,0"
       id="path5-9" /><path
       style="opacity:0.2"
       d="m 49.005859,16 c -0.0025,0.721518 -0.0088,1.440429 -0.002,2.160156 V 27 H 52 V 16 Z M 18.650391,21 C 13.920131,21 11,25.420057 11,32.662109 11,39.715442 13.8323,44 18.4375,44 23.108908,44 26,39.61926 26,32.337891 26,25.316011 23.196737,21 18.650391,21 Z m -0.183594,2.289062 c 3.075037,0 5.001953,3.54638 5.001953,9.373047 0,5.637949 -1.838829,9.048828 -4.847656,9.048829 -3.133889,0 -5.089844,-3.507063 -5.089844,-9.373047 0,-5.637949 1.897292,-9.048828 4.935547,-9.048829 z M 46.527344,35 C 43.75486,34.988975 41.18512,36.794006 40.117188,39.28125 38.900755,42.002906 38.5928,45.049269 38.9375,48 h 2.632812 c -0.369066,-2.804734 -0.199305,-5.734665 1.039063,-8.306641 0.911604,-2.093554 3.661151,-3.257245 5.748047,-2.076171 2.580369,1.561883 3.083139,4.826557 3.21875,7.55664 0.01394,0.914068 -3.34e-4,1.874708 -0.0957,2.826172 h 2.572265 C 54.375861,45.488544 54.153861,42.901059 53.449219,40.482422 52.656274,37.665876 50.223743,35.093458 47.083984,35.025391 46.897519,35.008831 46.711924,35 46.527344,35 Z"
       id="path6-4" /><path
       style="fill:#57e389"
       d="M 18.43747,43 C 23.108878,43 26,38.620172 26,31.338803 26,24.316923 23.197156,20 18.65081,20 13.92055,20 11,24.419145 11,31.661197 11,38.71453 13.83227,43 18.43747,43 Z m 0.183914,-2.288205 c -3.133889,0 -5.090732,-3.507008 -5.090732,-9.372992 0,-5.637949 1.897989,-9.050598 4.936244,-9.050598 3.075037,0 5.002453,3.546325 5.002453,9.372992 0,5.637949 -1.839138,9.050598 -4.847965,9.050598 z m 0,0"
       id="path7" /><path
       style="fill:#57e389"
       d="m 49.005437,15 c -0.0025,0.721518 -0.0093,1.441244 -0.0025,2.160971 V 26 h 2.997072 V 15 Z"
       id="path8" /><path
       style="fill:#57e389"
       d="M 46.528119,34.00005 C 43.755635,33.989025 41.184684,35.793736 40.11675,38.28098 38.762528,41.31093 38.527092,44.745609 39.073304,48 h 2.648171 c -0.549975,-3.098017 -0.499121,-6.427835 0.887121,-9.306932 0.911604,-2.093554 3.661486,-3.25623 5.748382,-2.075156 2.580369,1.561885 3.083258,4.825475 3.218869,7.555558 0.01886,1.236264 -0.01134,2.557154 -0.227905,3.82653 h 2.548352 c 0.533026,-2.818387 0.352212,-5.776588 -0.446383,-8.51771 -0.792945,-2.816546 -3.226406,-5.388417 -6.366165,-5.456484 -0.186465,-0.01656 -0.371047,-0.02575 -0.555627,-0.02575 z m 0,0"
       id="path9" /><path
       style="opacity:0.2"
       d="M 9.8261719,15 C 8.8168304,15 8,15.820638 8,16.833984 v 1 C 8,16.820638 8.8168304,16 9.8261719,16 H 27.173828 C 28.183168,16 29,16.820638 29,17.833984 v -1 C 29,15.820638 28.183168,15 27.173828,15 Z M 37.826172,15 C 36.81683,15 36,15.820638 36,16.833984 v 1 C 36,16.820638 36.81683,16 37.826172,16 H 55.173828 C 56.183172,16 57,16.820638 57,17.833984 v -1 C 57,15.820638 56.183172,15 55.173828,15 Z"
       id="path11" /><path
       style="opacity:0.2;fill:#ffffff"
       d="M 18.650391,20 C 13.920131,20 11,24.420057 11,31.662109 c 0,0.168995 0.01043,0.328346 0.01367,0.494141 C 11.14917,25.219544 14.033073,21 18.650391,21 c 4.437518,0 7.205537,4.119251 7.335937,10.845703 C 25.989606,31.67527 26,31.511647 26,31.337891 26,24.316011 23.196737,20 18.650391,20 Z m -5.109375,11.826172 c -0.0036,0.170526 -0.0098,0.336874 -0.0098,0.511719 0,5.865984 1.955955,9.373047 5.089844,9.373047 3.008827,-10e-7 4.847656,-3.41088 4.847656,-9.048829 0,-0.173409 -0.0064,-0.338475 -0.0098,-0.507812 -0.105851,5.339854 -1.918813,8.55664 -4.83789,8.556641 -3.0447,0 -4.972527,-3.317077 -5.080078,-8.884766 z M 46.527344,34 c -2.772484,-0.01102 -5.342224,1.794006 -6.410156,4.28125 -0.967227,2.164082 -1.354254,4.534659 -1.302735,6.898438 0.0663,-2.028515 0.471863,-4.039438 1.302735,-5.898438 C 41.18512,36.794006 43.75486,34.988975 46.527344,35 c 0.18458,0 0.370175,0.0088 0.55664,0.02539 3.139759,0.06807 5.57229,2.640485 6.365235,5.457031 0.446946,1.534113 0.692988,3.136638 0.736328,4.74414 0.054,-1.940582 -0.196626,-3.891651 -0.736328,-5.74414 -0.792945,-2.816545 -3.225476,-5.388963 -6.365235,-5.45703 C 46.897519,34.008831 46.711924,34 46.527344,34 Z m -5.115235,11.001953 c -0.02824,1.001513 0.02776,2.006724 0.158203,2.998047 h 0.150391 c -0.174571,-0.983362 -0.278798,-1.989843 -0.308594,-2.998047 z m 10.164063,0.181641 C 51.563354,46.114697 51.506221,47.070589 51.347656,48 h 0.132813 c 0.09503,-0.948127 0.109408,-1.905223 0.0957,-2.816406 z"
       id="path12" /></g></svg>

<svg xmlns="http://www.w3.org/2000/svg" width="64" height="64" version="1.1">
 <path style="opacity:0.2" d="M 8.0714287,11.999999 H 56.928573 c 2.248432,0 4.071429,1.835791 4.071429,4.1 V 48.9 c 0,2.26421 -1.822997,4.1 -4.071429,4.1 H 8.0714287 C 5.8229979,53 4,51.16421 4,48.9 V 16.099999 c 0,-2.264209 1.8229979,-4.1 4.0714287,-4.1 z m 0,0"/>
 <path style="fill:#ffb55b" d="M 8.0714287,10.999999 H 56.928573 c 2.248432,0 4.071429,1.835791 4.071429,4.1 V 47.9 c 0,2.26421 -1.822997,4.1 -4.071429,4.1 H 8.0714287 C 5.8229979,52 4,50.16421 4,47.9 V 15.099999 c 0,-2.264209 1.8229979,-4.1 4.0714287,-4.1 z m 0,0"/>
 <path style="fill:#ff761c" d="M 31,10.999999 V 52 h 3 V 10.999999 Z"/>
 <path style="fill:#38353e" d="M 9.8260871,15 H 27.173914 C 28.183254,15 29,15.819987 29,16.833333 V 46.166667 C 29,47.180013 28.183254,48 27.173914,48 H 9.8260871 C 8.8167456,48 8,47.180013 8,46.166667 V 16.833333 C 8,15.819987 8.8167456,15 9.8260871,15 Z m 0,0"/>
 <path style="fill:#38353e" d="M 37.826087,15 H 55.173912 C 56.183256,15 57,15.819987 57,16.833333 V 46.166667 C 57,47.180013 56.183256,48 55.173912,48 H 37.826087 C 36.816745,48 36,47.180013 36,46.166667 V 16.833333 C 36,15.819987 36.816745,15 37.826087,15 Z m 0,0"/>
 <path style="opacity:0.2" d="M 49.005859 16 C 49.003359 16.721518 48.997106 17.440429 49.003906 18.160156 L 49.003906 27 L 52 27 L 52 16 L 49.005859 16 z M 18.650391 21 C 13.920131 21 11 25.420057 11 32.662109 C 11 39.715442 13.8323 44 18.4375 44 C 23.108908 44 26 39.61926 26 32.337891 C 26 25.316011 23.196737 21 18.650391 21 z M 18.466797 23.289062 C 21.541834 23.289062 23.46875 26.835442 23.46875 32.662109 C 23.46875 38.300058 21.629921 41.710937 18.621094 41.710938 C 15.487205 41.710938 13.53125 38.203875 13.53125 32.337891 C 13.53125 26.699942 15.428542 23.289063 18.466797 23.289062 z M 46.527344 35 C 43.75486 34.988975 41.18512 36.794006 40.117188 39.28125 C 38.900755 42.002906 38.5928 45.049269 38.9375 48 L 41.570312 48 C 41.201246 45.195266 41.371007 42.265335 42.609375 39.693359 C 43.520979 37.599805 46.270526 36.436114 48.357422 37.617188 C 50.937791 39.179071 51.440561 42.443745 51.576172 45.173828 C 51.590117 46.087896 51.575838 47.048536 51.480469 48 L 54.052734 48 C 54.375861 45.488544 54.153861 42.901059 53.449219 40.482422 C 52.656274 37.665876 50.223743 35.093458 47.083984 35.025391 C 46.897519 35.008831 46.711924 35 46.527344 35 z"/>
 <path style="fill:#57e389" d="M 18.43747,43 C 23.108878,43 26,38.620172 26,31.338803 26,24.316923 23.197156,20 18.65081,20 13.92055,20 11,24.419145 11,31.661197 11,38.71453 13.83227,43 18.43747,43 Z m 0.183914,-2.288205 c -3.133889,0 -5.090732,-3.507008 -5.090732,-9.372992 0,-5.637949 1.897989,-9.050598 4.936244,-9.050598 3.075037,0 5.002453,3.546325 5.002453,9.372992 0,5.637949 -1.839138,9.050598 -4.847965,9.050598 z m 0,0"/>
 <path style="fill:#57e389" d="m 49.005437,15 c -0.0025,0.721518 -0.0093,1.441244 -0.0025,2.160971 V 26 h 2.997072 V 15 Z"/>
 <path style="fill:#57e389" d="M 46.528119,34.00005 C 43.755635,33.989025 41.184684,35.793736 40.11675,38.28098 38.762528,41.31093 38.527092,44.745609 39.073304,48 h 2.648171 c -0.549975,-3.098017 -0.499121,-6.427835 0.887121,-9.306932 0.911604,-2.093554 3.661486,-3.25623 5.748382,-2.075156 2.580369,1.561885 3.083258,4.825475 3.218869,7.555558 0.01886,1.236264 -0.01134,2.557154 -0.227905,3.82653 h 2.548352 c 0.533026,-2.818387 0.352212,-5.776588 -0.446383,-8.51771 -0.792945,-2.816546 -3.226406,-5.388417 -6.366165,-5.456484 -0.186465,-0.01656 -0.371047,-0.02575 -0.555627,-0.02575 z m 0,0"/>
 <path style="fill:#ffffff;opacity:0.2" d="M 8.0722656 11 C 5.8238348 11 4 12.8354 4 15.099609 L 4 16.099609 C 4 13.8354 5.8238348 12 8.0722656 12 L 56.927734 12 C 59.176166 12 61 13.8354 61 16.099609 L 61 15.099609 C 61 12.8354 59.176166 11 56.927734 11 L 8.0722656 11 z"/>
 <path style="opacity:0.2" d="M 9.8261719 15 C 8.8168304 15 8 15.820638 8 16.833984 L 8 17.833984 C 8 16.820638 8.8168304 16 9.8261719 16 L 27.173828 16 C 28.183168 16 29 16.820638 29 17.833984 L 29 16.833984 C 29 15.820638 28.183168 15 27.173828 15 L 9.8261719 15 z M 37.826172 15 C 36.81683 15 36 15.820638 36 16.833984 L 36 17.833984 C 36 16.820638 36.81683 16 37.826172 16 L 55.173828 16 C 56.183172 16 57 16.820638 57 17.833984 L 57 16.833984 C 57 15.820638 56.183172 15 55.173828 15 L 37.826172 15 z"/>
 <path style="fill:#ffffff;opacity:0.2" d="M 18.650391 20 C 13.920131 20 11 24.420057 11 31.662109 C 11 31.831104 11.010435 31.990455 11.013672 32.15625 C 11.14917 25.219544 14.033073 21 18.650391 21 C 23.087909 21 25.855928 25.119251 25.986328 31.845703 C 25.989606 31.67527 26 31.511647 26 31.337891 C 26 24.316011 23.196737 20 18.650391 20 z M 13.541016 31.826172 C 13.537389 31.996698 13.53125 32.163046 13.53125 32.337891 C 13.53125 38.203875 15.487205 41.710938 18.621094 41.710938 C 21.629921 41.710937 23.46875 38.300058 23.46875 32.662109 C 23.46875 32.4887 23.462377 32.323634 23.458984 32.154297 C 23.353133 37.494151 21.540171 40.710937 18.621094 40.710938 C 15.576394 40.710938 13.648567 37.393861 13.541016 31.826172 z M 46.527344 34 C 43.75486 33.988975 41.18512 35.794006 40.117188 38.28125 C 39.149961 40.445332 38.762934 42.815909 38.814453 45.179688 C 38.880754 43.151173 39.286316 41.14025 40.117188 39.28125 C 41.18512 36.794006 43.75486 34.988975 46.527344 35 C 46.711924 35 46.897519 35.008831 47.083984 35.025391 C 50.223743 35.093458 52.656274 37.665876 53.449219 40.482422 C 53.896165 42.016535 54.142207 43.61906 54.185547 45.226562 C 54.239546 43.28598 53.988921 41.334911 53.449219 39.482422 C 52.656274 36.665876 50.223743 34.093458 47.083984 34.025391 C 46.897519 34.008831 46.711924 34 46.527344 34 z M 41.412109 45.001953 C 41.383865 46.003466 41.439867 47.008677 41.570312 48 L 41.720703 48 C 41.546132 47.016638 41.441905 46.010157 41.412109 45.001953 z M 51.576172 45.183594 C 51.563354 46.114697 51.506221 47.070589 51.347656 48 L 51.480469 48 C 51.575503 47.051873 51.589877 46.094777 51.576172 45.183594 z"/>
</svg>
